X:307
T:Harvest Home
R:Strathspey
B:The Athole Collection
M:C|
L:1/8
K:C
A|DDF>D A>DF>D|A,A,C>A, E>A,C>A,|DDF>D A>DF>A|
(3Bcd (3efg f<dd:|
f|ddf>d g>ef>d|g2 e>d c>BA>f|ddf>d g>ef>d|B<g e>c d2 A>f|
ddf>d g>ef>d|g2 e>d c>BA>c|(3dfe (3efg (3fed (3cBA|
(3BAB (3ABc (3dAG (3FED||

